svg/furkot/mapbox-maki/triangle.svg

<svg viewBox="0 0 512 512" xmlns="http://www.w3.org/2000/svg"><path d="m257.517 40c-11.61 0-19.232 6.979-24.238 15.147l-230.249 375.67c-3.03 3.028-3.03 9.086-3.03 15.147 0 21.208 15.147 27.266 27.266 27.266h457.468c15.147 0 27.266-6.058 27.266-27.266 0-6.057 0-9.089-3.028-15.147l-227.223-375.67c-4.954-8.196-14.399-15.147-24.232-15.147z"/></svg>

<svg viewBox="0 0 512 512" xmlns="http://www.w3.org/2000/svg"><path d="M 257.517 40 C 245.907 40 238.285 46.979 233.279 55.147 L 3.03 430.817 C 0 433.845 0 439.903 0 445.964 C 0 467.172 15.147 473.23 27.266 473.23 L 484.734 473.23 C 499.881 473.23 512 467.172 512 445.964 C 512 439.907 512 436.875 508.972 430.817 L 281.749 55.147 C 276.795 46.951 267.35 40 257.517 40 Z"/></svg>
